X:1
T:Teddy O'Neill
M:3/4
L:1/4
K:G
 D| B B3/2 B/2| B3/2 A/2 B| c3/2 E/2 A| G F E| D3/2 E/2 F| G3/2 F/2 G|\
 B A G| A2D/2-G/2| B B3/2 B/2| B3/2 A/2 B| c3/2 E/2 A| G F E| D3/2 G/2 B|\
 d c B| A E F| G2 G| A3/2 A/2 A| A3/2 A/2 B| c3/2 B/2 A| B G G| G3/2 G/2 G|\
 G3/2 F/2 G| B A G| A2D/2-G/2| B3/2 B/2 B| B3/2 A/2 B| c3/2 E/2 A|\
 G F E| D3/2 G/2 B| d c B| A E F| G2||

